icons/svg/16x16/chevron left/outline.svg

<svg xmlns="http://www.w3.org/2000/svg" width="16" height="16" viewBox="0 0 16 16">
  <path fill-rule="evenodd" d="M9.99982144,14 C9.74383973,14 9.48785801,13.902002 9.29287194,13.7070061 L4.29322906,8.70711027 C3.90225698,8.31611841 3.90225698,7.68413158 4.29322906,7.29313973 L9.29287194,2.29324389 C9.68384401,1.90225204 10.3157989,1.90225204 10.7067709,2.29324389 C11.097743,2.68423575 11.097743,3.31622258 10.7067709,3.70721443 L6.41407757,8.000125 L10.7067709,12.2930356 C11.097743,12.6840274 11.097743,13.3160142 10.7067709,13.7070061 C10.5117849,13.902002 10.2558032,14 9.99982144,14"/>
</svg>

<svg width="16" height="16" fill="none" xmlns="http://www.w3.org/2000/svg">
  <path fill-rule="evenodd" clip-rule="evenodd" d="M10 14a.997.997 0 01-.707-.293l-5-5a.997.997 0 010-1.414l5-5a.997.997 0 011.414 0 .997.997 0 010 1.414L6.414 8l4.293 4.293a.997.997 0 010 1.414A.997.997 0 0110 14z" fill="#000"/>
</svg>
